src/icons/mosaic.icon.svg

<svg xmlns="http://www.w3.org/2000/svg" viewBox="0 0 24 24"><path d="M2 3h9v8H2V3zm11 0h9v8h-9V3zm0 10h9v8h-9v-8zM2 13h9v8H2v-8z" fill="currentColor" fill-rule="evenodd"/></svg>

<?xml version="1.0" encoding="UTF-8"?>
<svg width="24px" height="24px" viewBox="0 0 24 24" version="1.1" xmlns="http://www.w3.org/2000/svg" xmlns:xlink="http://www.w3.org/1999/xlink">
    <!-- Generator: Sketch 49.2 (51160) - http://www.bohemiancoding.com/sketch -->
    <title>IconMosaic</title>
    <desc>Created with Sketch.</desc>
    <defs></defs>
    <g id="Page-1" stroke="none" stroke-width="1" fill="none" fill-rule="evenodd">
        <g id="IconMosaic">
            <path d="M2,3 L11,3 L11,11 L2,11 L2,3 Z M13,3 L22,3 L22,11 L13,11 L13,3 Z M13,13 L22,13 L22,21 L13,21 L13,13 Z M2,13 L11,13 L11,21 L2,21 L2,13 Z" id="Combined-Shape" fill="currentColor"></path>
        </g>
    </g>
</svg>
